!!!!SEGMENT: pl-kc--40102-iii-1-saf--002-011_zielenski-mikolaj--communiones-totius-anni-dominica-post-epiphania-mirabantur-omnes.krn
!!!cenid: 16xx:1542
!!!COM: Zieleński, Mikołaj
!!!COM-rismID: pe30013481
!!!CDT: <1611->1611
!!!CNT: Polish
!!!GTL: Communiones totius anni
!!!OTL: Dominica post Epiphania/Mirabantur omnes
!!!OMV: 011
!!!PDT: 1611
!!!AGN:
!!!SMS-siglum: PL-Kc
!!!SMS-shelfmark: 40102 III/1 Saf.
!!!SMS-shelfwork: 002-011 G
!!!SMS-variant:
!!!SMS-altvar:
!!!NIFC-rismSourceID: 990069887
!!!NIFC-islandoraID:
!!!URL-pdf-islandora:
!!!URL-scan: https://cyfrowe.mnk.pl/dlibra/publication/24235/edition/23926/content?ref=desc @EN{Scan on The National Museum in Krakow Website} @PL{Skany w portalu Biblioteka Cyfrowa Muzeum Narodowego w Krakowie}
!!!ONB-nifc: UWAGA: str. 51. Uwaga: W xml metrum 2/1 do źródłowego C| i odpowiednio 3/1 do 3/2
!!!AIN: 2 organ
!!!key:
**kern	**kern
*group1	*group1
*part2	*part1
*staff2	*staff1
*I"Organo	*I"Organo
*I'org	*I'org
*Iorgan	*Iorgan
*ICklav	*ICklav
*clefC4	*clefC1
*k[b-]	*k[b-]
*F:	*F:
*M2/1	*M2/1
*met(C|)	*met(C|)
=1	=1
!LO:TX:a:t=Mirabantur omnes	!LO:TX:a:t=11. Dominica 3. 4. 5. & 6. poſt Epiphania. Solus Baſſus canet.
1r	1.cc
1.f	.
.	2cc\
=2-	=2-
.	2a\
2f\	1f
2d\	.
4B-\	2b-\
4c\	.
=3	=3
4d\	2b-\
4e\	.
1f	1a
2f\	4g/
.	4f/
=4-	=4-
1.c	2g/
.	2.cc\
.	4b-\
2c\	4a\
.	4g/
=5	=5
2.B-\	2f/
.	2.b-\
4A/	.
2G/	.
.	4a\
2C/	1g
=6-	=6-
0G	.
.	4f/
.	4e/
.	1d
=7	=7
*clefF4	*
1.C	2e/
.	2g/
.	2a\
2C/	2.cc\
=8-	=8-
2AA/	.
.	4b-\
2FF/	4a\
.	4g/
2.BB-/	2f/
.	2b-\
4C/	.
=9	=9
4D/	2b-\
4E\	.
1F	4a\
.	4g/
.	2a\
2F\	1dd
=10-	=10-
1G	.
.	2.cc\
1GG	.
!	!LO:N:acc=#
.	8bn\
.	8a\
.	2b\
=11	=11
1E	0cc
2c\	.
2c\	.
=12-	=12-
2A\	2a\
2F\	1cc
2.A\	.
.	4b-\
4B-\	4a\
=13	=13
1c	4g/
.	4f/
.	2g/
1.F	2a\
.	4f/
.	4g/
=14-	=14-
.	4a\
.	4b-\
2F\	1a
2D/	.
2BB-/	4g/
.	4f/
=15	=15
2.C/	4e/
.	4c/
.	1cc
4D/	.
4E\	.
4F\	.
4G\	2b-\
4GG/	.
=16-	=16-
2D/	2.a\
2F\	.
.	4a\
2.C/	2g/
.	[y2cc\
4BB-/	.
=17	=17
!	!LO:N:xstem:cue
4AA/	4cc\]
4GG/	4b-\
2FF/	2a\
1C	1g
=18-	=18-
2FF/	2.f/
1F	.
.	4g/
.	2a\
[<2D/	2b-\
=19	=19
2D/]	2a\
2D/	2.dd\
1GG	.
.	4cc\
.	4b-\
.	4a\
=20-	=20-
2.C/	2g/
.	2.cc\
4C/	.
4FF/	.
4F\	8b-\
.	8a\
4E\	4g/
4F\	4a\
=21	=21
1D	2.f/
.	4f/
1C	4e/
.	4a\
.	4g/
.	4a\
=22-	=22-
4r	2f/
4BB-/	.
4AA/	2f/
4BB-/	.
1GG	1g
=23	=23
2FF/	4a\
.	4f/
4A\	4e/
4F\	4f/
2G\	2d/
4C/	2e/
4C/	.
=24-	=24-
4D/	2f/
4BB-/	.
2F\	4r
.	4d/
2E\	4e/
.	4c/
2D/	2f/
=25	=25
2C/	4r
.	4cc\
2BB-/	4dd\
.	4b-\
2AA/	4cc\
.	4a\
*	*custos:b
!	!LO:LB:g=original
2GG/	4b-\
.	4g\
*custos:D	*
!LO:LB:g=original	!
=26-	=26-
1D	4a\
.	8d/
.	8e/
.	8f/
.	8g/
.	8a\
.	8b-\
2C/	2.cc\
2FF/	.
.	8b-\
.	8a\
=27	=27
1C	4g/
.	4a\
.	2g/
2FF/	2.f/
2F\	.
.	4a\
=28-	=28-
2F\	2a\
2D/	2.dd\
2.G\	.
.	4cc\
.	4b-\
4F\	4a\
=29	=29
2E-X\	4b-\
.	4g/
4D/	2.cc\
4C/	.
2G\	.
.	8b-\
.	8a\
2GG/	2b-\
=30-	=30-
1C	2.cc\
.	4a\
2d\	2a\
2F\	[y2f/
=31	=31
!	!LO:N:xstem:cue
2F\	4f/]
.	4c/
2BB-/	4d/
.	4e/
2.D/	4f/
.	4g\
.	2.a\
4E\	.
=32-	=32-
1F	.
.	4g\
.	2.f/
1C	.
.	8e/
.	8d/
.	2e/
=33	=33
4FF/	2f/
2F\	.
.	2a\
4E\	.
2D/	2b-\
2AA/	2cc\
=34-	=34-
0.BB-	2.dd\
.	4cc\
.	4b-\
.	4f/
.	4b-\
.	4cc\
=35-	=35-
.	2dd\
.	1b-
1F	.
.	4a\
.	4g/
=36-	=36-
0FFl	0al
==	==
*-	*-
!!!system-decoration: *
!!!RDF**kern: > = above
!!!RDF**kern: < = below
!!!RDF**kern: l = terminal long
!!!ENC: Andrzej Gręziak
!!!END: 2021-12-17
!!!ENC: Andrzej Kubiczek
!!!END: 2021-12-22
!!!YEC: Copyright 2022 Narodowy Instytut Fryderyka Chopina (https://polishscores.org)
!!!YEM: Licence CC BY 4.0 (https://creativecommons.org/licenses/by/4.0)
